X: 154
T: A Day In Sligo
R: jig
M: 6/8
K: Fdorian
|:C>DE FGF|EC<D EFG|A>AA GGG|1 F<FE C3:|2 FFE C2 G||
G2c c>BA|GFE E>FG|Gc<c cBA|G<FE F2F|
G2c c>BA|GFE E>FG|A>AA GGG|F<FE C3||

